svg/fluentui-system-icons/ic_fluent_shield_globe_16_filled.svg

<svg width="16" height="16" viewBox="0 0 16 16" fill="none" xmlns="http://www.w3.org/2000/svg">
<path d="M8.35464 2.14678C8.15946 1.95123 7.84268 1.95105 7.64728 2.14638C6.40416 3.38902 5.02923 4 3.5 4C3.22386 4 3 4.22386 3 4.5V7.50126C3 10.7196 4.64126 12.9075 7.84189 13.9743C7.94452 14.0086 8.05548 14.0086 8.15811 13.9743C11.3587 12.9075 13 10.7196 13 7.50126V4.5C13 4.22386 12.7761 4 12.5 4C10.9689 4 9.5947 3.38913 8.35464 2.14678ZM8 5.5C7.84444 5.5 7.70547 5.8552 7.61377 6.41224C7.56287 6.7214 7.52654 7.09272 7.51 7.5H8.49C8.47346 7.09272 8.43713 6.7214 8.38623 6.41224C8.29453 5.8552 8.15556 5.5 8 5.5ZM6.66587 6.03612C6.58359 6.4475 6.5297 6.95334 6.50924 7.5H5.55001C5.69075 6.80665 6.11843 6.2175 6.70371 5.8619C6.68993 5.92032 6.67737 5.9786 6.66587 6.03612ZM6.70371 10.1381C6.11843 9.7825 5.69075 9.19335 5.55001 8.5H6.50924C6.5297 9.04666 6.58359 9.5525 6.66587 9.96388C6.67737 10.0214 6.68993 10.0797 6.70371 10.1381ZM8.38623 9.58776C8.43713 9.2786 8.47346 8.90728 8.49 8.5H7.51C7.52654 8.90728 7.56287 9.2786 7.61377 9.58776C7.70547 10.1448 7.84444 10.5 8 10.5C8.15556 10.5 8.29453 10.1448 8.38623 9.58776ZM9.33413 9.96388C9.41641 9.5525 9.4703 9.04666 9.49076 8.5H10.45C10.3092 9.19335 9.88157 9.7825 9.29629 10.1381C9.31007 10.0797 9.32263 10.0214 9.33413 9.96388ZM9.29629 5.8619C9.88157 6.2175 10.3092 6.80665 10.45 7.5H9.49076C9.4703 6.95334 9.41641 6.4475 9.33413 6.03612C9.32263 5.9786 9.31007 5.92032 9.29629 5.8619ZM8 11.5C6.067 11.5 4.5 9.933 4.5 8C4.5 6.067 6.067 4.5 8 4.5C9.933 4.5 11.5 6.067 11.5 8C11.5 9.933 9.933 11.5 8 11.5Z" fill="#212121"/>
</svg>

<svg xmlns="http://www.w3.org/2000/svg" width="16" height="16"><path d="M8.355 2.147a.5.5 0 0 0-.708 0C6.404 3.388 5.03 4 3.5 4a.5.5 0 0 0-.5.5v3.001c0 3.219 1.641 5.407 4.842 6.473a.499.499 0 0 0 .316 0C11.358 12.908 13 10.72 13 7.501V4.5a.5.5 0 0 0-.5-.5c-1.531 0-2.905-.61-4.145-1.853ZM8 5.5c-.156 0-.295.355-.386.912-.051.31-.087.68-.104 1.088h.98a9.114 9.114 0 0 0-.104-1.088C8.295 5.855 8.156 5.5 8 5.5Zm-1.334.536A9.498 9.498 0 0 0 6.509 7.5H5.55a2.503 2.503 0 0 1 1.154-1.638 5.201 5.201 0 0 0-.038.174Zm.038 4.102A2.503 2.503 0 0 1 5.55 8.5h.96c.02.547.074 1.053.156 1.464.011.057.024.116.038.174Zm1.682-.55c.051-.31.087-.68.104-1.088h-.98c.017.407.053.779.104 1.088.091.557.23.912.386.912s.295-.355.386-.912Zm.948.376c.082-.412.136-.917.157-1.464h.959a2.503 2.503 0 0 1-1.154 1.638 5.19 5.19 0 0 0 .038-.174Zm-.038-4.102A2.503 2.503 0 0 1 10.45 7.5h-.96a9.498 9.498 0 0 0-.156-1.464 5.201 5.201 0 0 0-.038-.174ZM8 11.5a3.5 3.5 0 1 1 0-7 3.5 3.5 0 0 1 0 7Z"/></svg>
